svg/600/sharp/medical_information-fill.svg

<svg xmlns="http://www.w3.org/2000/svg" width="48" height="48" viewBox="0 -960 960 960"><path d="M290-230.391h73.001v-86.608h86.608V-390h-86.608v-86.609H290V-390h-86.609v73.001H290v86.608Zm224.913-152.261h241.696v-56.957H514.913v56.957Zm0 128.479h161.696v-56.957H514.913v56.957ZM65.869-65.869v-628.827h310v-200h208.827v200h310v628.827H65.869ZM451.13-600.174h58.305v-219.261H451.13v219.261Z"/></svg>

<svg xmlns="http://www.w3.org/2000/svg" width="48" height="48" viewBox="0 -960 960 960"><path d="M290-230.39h73V-317h86.61v-73H363v-86.61h-73V-390h-86.61v73H290v86.61Zm224.91-152.26h241.7v-56.96h-241.7v56.96Zm0 128.48h161.7v-56.96h-161.7v56.96ZM65.87-65.87V-694.7h310v-200H584.7v200h310v628.83H65.87Zm385.26-534.3h58.3v-219.26h-58.3v219.26Z"/></svg>
